X:11
T:Orange in Bloom
M:6/8
S:Bacon (CJS MSS)
A:Bledington (adapted from Sherborne)
O:English
R:Jig
P:A(AB)4
K:G
P:A
EGE DGA | BdB A2B | GEE DGA | BGG G3 :|
P:B
BAB/2c/2 d2B | AGA Bcd | edB AGA | BAG E2D |
EGE DGA | BdB A2B | GEE DGA | B2G G3 |]
